X: 
T: Off to Donnybrook
S: Mike MacDougall
M: 6/8
L: 1/8
R: jig
K: G Major
|: E |
DGG BAB | AGG GBd | ege dBG | AGA  BGE |
DGG BAB | AGG GBd | ege dBA | BGG G2 :|
|: z |
gfg efg | edB def | g3 eag | fdc def |
gfg efg | edB def | gdB AGA |  BGG G2 :|
